static/img/logos/dropbox-1.svg

<svg height="2329" viewBox="0 0 42.4 39.5" width="2500" xmlns="http://www.w3.org/2000/svg"><path d="m10.6 1.7-10.6 6.8 10.6 6.7 10.6-6.7zm21.2 0-10.6 6.8 10.6 6.7 10.6-6.7zm-31.8 20.3 10.6 6.8 10.6-6.8-10.6-6.8zm31.8-6.8-10.6 6.8 10.6 6.8 10.6-6.8zm-21.2 15.8 10.6 6.8 10.6-6.8-10.6-6.7z" fill="#0062ff"/></svg>

<svg id="Layer_1" xmlns="http://www.w3.org/2000/svg" viewBox="0 0 42.4 39.5" width="2500" height="2329"><style>.st0{fill:#0062ff}</style><path class="st0" d="M10.6 1.7L0 8.5l10.6 6.7 10.6-6.7zm21.2 0L21.2 8.5l10.6 6.7 10.6-6.7zM0 22l10.6 6.8L21.2 22l-10.6-6.8zm31.8-6.8L21.2 22l10.6 6.8L42.4 22zM10.6 31l10.6 6.8L31.8 31l-10.6-6.7z"/></svg>
